X: 75
T: the Hunter's Purse
R: reel
Z: 2012 John Chambers <jc@trillian.mit.edu>
B: "100 Essential Irish Session Tunes" 1995 Dave Mallinson, ed.
M: 4/4
L: 1/8
K: Ador
Bd |\
"Am"eA~A2 AGEF | "G"GBAF GEDB | "C"cBcd eged | "D7"Bdef | "G"gedg |
"Am"eA~A2 AGEF | "G"GBAF GEDB | "F"cBcd "Em"eged | "F"cA"G"BG "Am"A2 :|
|: Bd |\
"Am"eaab agef | "G"gbaf gedB | "C"cBcd eged | "D7"Bdef "G"gedg |
"Am"eaab agef | "G"gbaf gedB | "F"cBcd "Em"eged | "F"((3cBA) "G"BG "Am"A2 :|
